X:1
T:Title
L:1/8
Q:1/4=140
M:6/8
K:G
V:1 treble nm="Grand Piano"
V:1
 z2 B, E2 E | D6- | D2 E F2 G |[M:9/8] F2 E D3 D2 C |[M:6/8] B,6 | z2 B, E2 E | D6- | D2 E F2 G | %8
[M:9/8] F2 E D3 D2 C |[M:6/8] B,6 | z2 B B2 B | B6- | B2 c c2 c | c6- | c2 c d2 c | B6 | %16
 z2 B B2 B | B6- | B2 c c2 c | c6- | c2 c d2 c | B6 | z2 B c2 B | A6- | A2 A B2 A | G6- | %26
 G2 G A2 G | F6 | D3- D2 C/D/ | E6 | z2[K:bass] B, A,2 B, | C6- | C2[K:treble] C B,2 C | D6- | %34
 D2 C D2 C | B,6- | B,2 B, E2 E | D6- | D2 B, D2 D | C6- | C2 A, C2 C | B,6 | z2 E F2 G | B6- | %44
 B2 A B2 c | d6- | d2 c d2 c | B6- | B2 B e2 e | d6- | d2 B d2 d | c6- | c2 A c2 c | B6- | %54
 B2 B B2 c | B6- | B2 B B2 c | B6- | B2 A G2 F | E6 |] %60

